X:18
T:Friendship Waltz
C:Andy De Jarlis
M:3/4
L:1/8
Z:abc by Bruce Osborne - bosborne@kos.net
K:Bb
F/E/|D2 E2 F2|d2 _d2 =d2|f3 g fd|e3 d cA|!
F2 A2 c2|e2 g3 a|g3 f gf|d4 F3/2E/|!
D2 E2 F2|d2 _d2 =d2|f3 d ec|G3 B AG|!
F2 A3 e|d2 A3 c|B3 A Bc|B4:|!
K:F
cB|A2 c2 b2|a4 ef|g2 f2 d2|B4 BA|!
G2 B2 g2|e4 c^c|d2 c2 B2|A4 cB|!
A2 c2 b2|a4 ef|g2 f2 e2|d6|!
g3 a gf|e3 c =Bc|b2 a3 g|f4:|!
